packages/core/src/svgs/tokens/mono/FITFI.svg

<svg width="24" height="24" viewBox="0 0 24 24" fill="none" xmlns="http://www.w3.org/2000/svg">
<path d="M8.29873 2.15428C8.4017 2.07978 8.52072 2.03047 8.64621 2.0103C8.7717 1.99013 8.90019 1.99967 9.02133 2.03815C9.02133 2.03815 10.7634 2.52204 11.1763 4.21242C11.2422 4.55955 11.4014 4.88222 11.6365 5.1459C11.8718 5.40956 12.1744 5.60428 12.5118 5.70923C12.8666 5.85117 13.2473 5.91568 13.6151 5.9544V5.19954C13.6158 4.98857 13.6583 4.77982 13.7397 4.58525C13.8213 4.39066 13.9402 4.21403 14.09 4.06546C14.2398 3.91687 14.4175 3.79925 14.6127 3.7193C14.808 3.63935 15.0169 3.59864 15.228 3.59948C16.1183 3.59948 16.8409 4.31564 16.8409 5.19954V6.79959C16.8409 6.90519 16.82 7.00974 16.7795 7.10723C16.7388 7.20473 16.6794 7.2932 16.6042 7.36758C16.5293 7.44195 16.4405 7.50075 16.3426 7.54057C16.2447 7.58039 16.14 7.60046 16.0344 7.59961C14.6925 7.83833 14.4215 9.27061 14.4215 9.99969C14.4215 12.0513 15.9828 14.7934 18.3572 14.7934C18.4732 14.7805 18.5893 14.7934 18.699 14.8256C19.112 14.9546 19.1764 15.2578 19.241 15.574C19.2862 15.774 19.3313 15.9804 19.4668 16.1548C19.7248 16.4837 20.0217 16.7611 20.3055 17.0386C21.0153 17.7096 21.6798 18.3483 21.6798 19.5999C21.6798 20.5548 21.0604 21.342 20.3506 21.6516C19.641 21.9678 18.8862 22 18.1893 22C15.7377 22 14.0215 20.5355 13.0924 19.7419L12.757 19.4644C11.1439 18.1741 9.71815 16.6451 8.28581 15.116C7.1651 13.879 5.98746 12.695 4.75669 11.5674C2.58242 9.63192 2.32435 6.87701 2.32435 6.87701C2.30497 6.69627 2.34822 6.51437 2.44687 6.3617C2.54551 6.20904 2.69358 6.09487 2.8663 6.03827L4.93088 5.35438C5.07282 4.98018 5.318 4.46403 5.90511 3.96724C6.6148 3.36077 8.29227 2.14784 8.29227 2.14784L8.29873 2.15428ZM9.60199 4.58662C9.49876 4.13499 9.15036 3.89628 8.86648 3.74143L8.76326 3.8124C8.30517 4.15434 7.38902 4.82533 6.95675 5.18663C6.75846 5.37577 6.59854 5.60141 6.48577 5.85117L7.74386 7.41896C8.42776 8.23189 7.07934 9.21251 6.47931 8.41254L5.29218 6.92862L4.09215 7.32864C4.23409 7.99316 4.58248 9.26414 5.83413 10.3675C7.05667 11.4904 8.22573 12.6703 9.33747 13.9029C10.7569 15.4192 12.1762 16.9353 13.7698 18.2193C13.8988 18.3161 14.0279 18.4257 14.157 18.5419C15.0022 19.2386 16.0667 20.1291 17.5183 20.3484C15.1764 18.658 11.615 14.8386 10.3891 12.3998C10.5955 12.6384 11.3053 13.0643 11.5698 12.8772C11.8537 12.6708 11.9052 12.2965 11.731 12.0061C11.5376 11.7094 11.1956 11.3675 10.8472 11.0125C10.2342 10.4062 9.58263 9.74798 9.58263 9.19971C9.58263 8.65125 9.93748 8.39962 10.3891 8.39962C10.5827 8.39962 10.7698 8.54803 10.9698 8.72219C11.2472 8.93506 11.5633 9.19324 12.002 9.19324C12.3441 9.19324 12.8085 8.98669 12.8085 8.39962C12.8085 7.9351 12.5504 7.38024 12.0601 7.24475C11.4584 7.04819 10.9171 6.70062 10.4877 6.23527C10.0585 5.76991 9.75578 5.20229 9.60845 4.58662H9.60199ZM18.1958 17.1419C18.041 16.9483 17.8991 16.703 17.8023 16.4321C17.3055 16.4902 16.8409 16.6515 16.8409 17.2063C16.8409 18.8257 18.6733 19.7032 19.8668 20.1096C20.0217 20.0258 20.0669 19.9355 20.0669 19.5999C20.0669 18.8257 19.499 18.3418 18.9378 17.858C18.6668 17.6322 18.4023 17.4064 18.1958 17.1419ZM17.9507 8.44479C18.6926 8.74808 18.4862 9.71577 18.0862 10.2126C17.7506 10.6255 17.0602 10.9546 16.5312 10.7416C16.409 10.6916 16.3011 10.6122 16.2166 10.5106C16.1323 10.409 16.0742 10.2881 16.0474 10.1588C16.0207 10.0295 16.026 9.89551 16.0632 9.76891C16.1002 9.64215 16.168 9.52639 16.2603 9.43185C16.4152 9.28356 16.628 9.19971 16.8409 9.19971C16.8344 8.6448 17.4215 8.23189 17.9507 8.44479ZM19.0216 11.0255C18.8684 10.8749 18.6622 10.7906 18.4475 10.7906C18.2327 10.7906 18.0264 10.8749 17.8732 11.0255C17.7249 11.1804 17.6473 11.3868 17.6473 11.5997C17.5146 11.5984 17.3836 11.6301 17.2659 11.6916C17.1483 11.7532 17.0476 11.8428 16.9729 11.9525C16.8983 12.0624 16.8519 12.1889 16.8379 12.3209C16.8239 12.4529 16.8426 12.5865 16.8925 12.7094C17.0215 13.0062 17.3184 13.2062 17.6473 13.1998C18.1636 13.1998 18.6345 12.9353 18.8926 12.6126C19.228 12.1932 19.4603 11.4514 19.0216 11.0255Z" fill="white"/>
</svg>

<svg xmlns="http://www.w3.org/2000/svg" width="24" height="24" fill="none" viewBox="0 0 24 24">
    <path fill="#fff" d="M8.299 2.154a.81.81 0 0 1 .722-.116s1.742.484 2.155 2.174a1.95 1.95 0 0 0 1.336 1.497c.355.142.735.207 1.103.245V5.2a1.606 1.606 0 0 1 1.613-1.6c.89 0 1.613.716 1.613 1.6v1.6a.8.8 0 0 1-.807.8c-1.341.238-1.612 1.67-1.612 2.4 0 2.051 1.56 4.793 3.935 4.793a.9.9 0 0 1 .342.033c.413.129.477.432.542.748.045.2.09.406.226.58.258.33.555.607.838.885.71.67 1.375 1.31 1.375 2.56a2.28 2.28 0 0 1-1.33 2.053c-.709.316-1.464.348-2.16.348-2.452 0-4.169-1.465-5.098-2.258l-.335-.278c-1.613-1.29-3.039-2.819-4.471-4.348a54 54 0 0 0-3.53-3.549c-2.174-1.935-2.432-4.69-2.432-4.69a.794.794 0 0 1 .542-.839l2.065-.684a3.24 3.24 0 0 1 .974-1.387c.71-.606 2.387-1.82 2.387-1.82zm1.303 2.433c-.103-.452-.452-.69-.736-.846l-.103.071c-.458.342-1.374 1.013-1.806 1.375a2.1 2.1 0 0 0-.471.664L7.744 7.42c.684.813-.665 1.794-1.265.994L5.292 6.929l-1.2.4c.142.664.49 1.935 1.742 3.039a53 53 0 0 1 3.503 3.535c1.42 1.516 2.84 3.032 4.433 4.316q.193.147.387.323c.845.697 1.91 1.587 3.361 1.806-2.342-1.69-5.903-5.51-7.129-7.948.207.238.916.664 1.18.477.285-.206.336-.58.162-.87-.193-.298-.535-.64-.884-.995-.613-.606-1.264-1.264-1.264-1.812 0-.549.354-.8.806-.8.194 0 .38.148.58.322.278.213.594.471 1.033.471.342 0 .806-.206.806-.793 0-.465-.258-1.02-.748-1.155a3.7 3.7 0 0 1-2.452-2.658zm8.594 12.555a2.5 2.5 0 0 1-.394-.71c-.497.058-.961.22-.961.774 0 1.62 1.832 2.497 3.026 2.904.155-.084.2-.174.2-.51 0-.774-.568-1.258-1.13-1.742-.27-.226-.535-.452-.741-.716m-.245-8.697c.742.303.535 1.27.135 1.768-.335.413-1.026.742-1.555.529a.807.807 0 0 1-.27-1.31.85.85 0 0 1 .58-.232.817.817 0 0 1 1.11-.755m1.07 2.58a.82.82 0 0 0-1.148 0 .83.83 0 0 0-.226.575.807.807 0 0 0-.755 1.11.81.81 0 0 0 .755.49c.517 0 .988-.265 1.246-.587.335-.42.567-1.162.129-1.588"/>
</svg>
